_includes/icons/color-light.svg

<svg fill="#666" height="50" viewBox="0 0 48 48" width="50" xmlns="http://www.w3.org/2000/svg"><path d="m23 44h2l3-3h-8" fill="#263238"/><path d="m26 42h-4c-2.199219 0-4-1.800781-4-4v-4h12v4c0 2.199219-1.800781 4-4 4z" fill="#9fa8da"/><path d="m30 38-11.601562 1.601563c.300781.699218.902343 1.398437 1.601562 1.796875l9.398438-1.296875c.402343-.601563.601562-1.300782.601562-2.101563z" fill="#5c6bc0"/><path d="m18 35.699219v2l12-1.699219v-2z" fill="#5c6bc0"/><path d="m18 34c-3-1.898437-9-8-9-15 0-8.300781 6.699219-15 15-15s15 6.699219 15 15c0 7-6 13.101563-9 15z" fill="#ffc107"/><path d="m30.601563 17.199219-3-2c-.300782-.199219-.800782-.199219-1.101563 0l-2.5 1.601562-2.398437-1.601562c-.300782-.199219-.800782-.199219-1.101563 0l-3 2c-.199219.199219-.398437.402344-.398437.699219 0 .300781 0 .601562.199218.800781l3.800782 4.699219v10.601562h2v-11c0-.199219-.101563-.398437-.203125-.601562l-3.296875-4.097657 1.5-1 2.398437 1.597657c.300781.203125.800781.203125 1.101563 0l2.398437-1.597657 1.5 1-3.300781 4.097657c-.097656.203125-.199219.402343-.199219.601562v11h2v-10.601562l3.800781-4.699219c.199219-.199219.300782-.5.199219-.800781-.101562-.296875-.199219-.597657-.398437-.699219z" fill="#fff176"/></svg>

<svg xmlns="http://www.w3.org/2000/svg" viewBox="0 0 48 48" width="50" height="50" fill="#666"><path d="M 23 44 L 25 44 L 28 41 L 20 41" fill="#263238"/><path d="M 26 42 L 22 42 C 19.800781 42 18 40.199219 18 38 L 18 34 L 30 34 L 30 38 C 30 40.199219 28.199219 42 26 42 Z" fill="#9fa8da"/><path d="M 30 38 L 18.398438 39.601563 C 18.699219 40.300781 19.300781 41 20 41.398438 L 29.398438 40.101563 C 29.800781 39.5 30 38.800781 30 38 Z" fill="#5c6bc0"/><path d="M 18 35.699219 L 18 37.699219 L 30 36 L 30 34 Z" fill="#5c6bc0"/><path d="M 18 34 C 15 32.101563 9 26 9 19 C 9 10.699219 15.699219 4 24 4 C 32.300781 4 39 10.699219 39 19 C 39 26 33 32.101563 30 34 Z" fill="#ffc107"/><path d="M 30.601563 17.199219 L 27.601563 15.199219 C 27.300781 15 26.800781 15 26.5 15.199219 L 24 16.800781 L 21.601563 15.199219 C 21.300781 15 20.800781 15 20.5 15.199219 L 17.5 17.199219 C 17.300781 17.398438 17.101563 17.601563 17.101563 17.898438 C 17.101563 18.199219 17.101563 18.5 17.300781 18.699219 L 21.101563 23.398438 L 21.101563 34 L 23.101563 34 L 23.101563 23 C 23.101563 22.800781 23 22.601563 22.898438 22.398438 L 19.601563 18.300781 L 21.101563 17.300781 L 23.5 18.898438 C 23.800781 19.101563 24.300781 19.101563 24.601563 18.898438 L 27 17.300781 L 28.5 18.300781 L 25.199219 22.398438 C 25.101563 22.601563 25 22.800781 25 23 L 25 34 L 27 34 L 27 23.398438 L 30.800781 18.699219 C 31 18.5 31.101563 18.199219 31 17.898438 C 30.898438 17.601563 30.800781 17.300781 30.601563 17.199219 Z" fill="#fff176"/></svg>
